brandFactory_export/2.Regular/No me gusta_Dislike_2Regular.svg

<?xml version="1.0" encoding="UTF-8"?>
<svg width="24px" height="24px" viewBox="0 0 24 24" version="1.1" xmlns="http://www.w3.org/2000/svg" xmlns:xlink="http://www.w3.org/1999/xlink">
    <title>2.Regular/No me gusta_Dislike_2Regular</title>
    <g id="Symbols" stroke="none" stroke-width="1" fill="none" fill-rule="evenodd">
        <g id="2.Regular/No-me-gusta_Dislike_2Regular" fill="#5CB615" fill-rule="nonzero">
            <path d="M3.27394958,10.6756303 C3.81176471,10.6756303 4.18823529,10.2991597 4.18823529,9.76134454 C4.18823529,9.22352941 3.81176471,8.84705882 3.27394958,8.84705882 C2.73613445,8.84705882 2.35966387,9.22352941 2.35966387,9.76134454 C2.35966387,10.302521 2.73277311,10.6756303 3.27394958,10.6756303 Z M21.7142857,10.7327731 C21.4151261,11.0117647 21.3983193,11.4823529 21.6773109,11.7815126 L21.7176471,11.8218487 C21.9966387,12.0773109 22.1478992,12.5142857 22.1478992,13.0823529 C22.1478992,14.2218487 21.1495798,14.4 20.7193277,14.4235294 L16.6487395,14.4235294 L13.4252101,14.5176471 C13.0252101,14.5277311 12.7058824,14.8571429 12.7092437,15.2605042 C12.7092437,16.9613445 12.712605,18.6655462 12.7193277,20.3663866 L12.7260504,20.5109244 C12.7294118,21.6806723 12.2722689,22.1478992 11.2033613,22.1478992 C10.810084,22.1478992 10.2789916,22.0806723 9.9697479,21.7445378 C9.74117647,21.4991597 9.64369748,21.1260504 9.67731092,20.6319328 L9.69747899,20.4033613 C9.70756303,20.302521 9.71764706,20.205042 9.72436975,20.087395 C9.72773109,20.0605042 9.73109244,20.0336134 9.73109244,20.0067227 C9.76134454,18.6184874 9.78151261,16.8369748 9.64369748,15.3848739 C9.43529412,13.2 7.50588235,11.9529412 6.59495798,11.4857143 L6.59495798,11.4756303 C6.59495798,11.4554622 6.60168067,11.4386555 6.60168067,11.4184874 L6.60168067,2.39327731 L9.57310924,2.35294118 C9.96638655,2.35294118 10.3563025,2.24201681 10.8470588,2.10084034 L11.1058824,2.02689076 C11.9831933,1.77142857 12.9747899,1.4789916 15.4722689,1.4789916 C19.6,1.4789916 19.8588235,1.8789916 20.1546218,2.67563025 C20.2554622,3.33109244 20.1579832,3.62352941 20.0571429,3.80504202 C19.8621849,4.16470588 19.9966387,4.61176471 20.3529412,4.80672269 C20.3764706,4.82016807 20.3966387,4.8302521 20.4201681,4.84033613 C20.9176471,5.04537815 21.512605,5.43865546 21.512605,6.11428571 C21.512605,6.58823529 21.405042,6.96134454 21.2067227,7.19663866 C21.0722689,7.35462185 21.0084034,7.56638655 21.0352941,7.77142857 C21.0621849,7.97647059 21.1764706,8.16470588 21.3478992,8.28571429 C21.8756303,8.6487395 22.1445378,9.09579832 22.1445378,9.61008403 C22.1512605,10.087395 22.0033613,10.4638655 21.7142857,10.7327731 Z M4.85378151,2.03361345 C4.99831933,2.03361345 5.11260504,2.1512605 5.12268908,2.29243697 L5.12268908,11.4352941 C5.11596639,11.5798319 4.99831933,11.6941176 4.85378151,11.6941176 L1.74453782,11.6941176 C1.59327731,11.6941176 1.47226891,11.5697479 1.47226891,11.4184874 L1.47226891,2.3092437 C1.47226891,2.15798319 1.59663866,2.03697479 1.74453782,2.03697479 L4.85378151,2.03361345 Z M23.1663866,11.2773109 C23.4218487,10.8773109 23.6235294,10.3327731 23.6235294,9.60672269 C23.6235294,8.82016807 23.307563,8.0907563 22.7260504,7.5092437 C22.8773109,7.15630252 22.9915966,6.69579832 22.9915966,6.10756303 C22.9915966,5.16302521 22.497479,4.34621849 21.6134454,3.79159664 C21.697479,3.37478992 21.6907563,2.90420168 21.6,2.35630252 C21.5932773,2.31260504 21.5798319,2.26554622 21.5630252,2.22521008 C20.887395,0.396638655 19.8084034,0 15.4722689,0 C12.7630252,0 11.6134454,0.336134454 10.6890756,0.608403361 L10.4403361,0.678991597 C10.0605042,0.789915966 9.75462185,0.877310924 9.56302521,0.877310924 L6.19831933,0.921008403 C6.11764706,0.921008403 6.04369748,0.951260504 5.96638655,0.968067227 C5.65378151,0.705882353 5.2605042,0.561344538 4.85378151,0.557983193 L1.74453782,0.557983193 C0.783193277,0.557983193 0,1.34117647 0,2.30588235 L0,11.4184874 C0,12.3831933 0.783193277,13.1663866 1.74453782,13.1663866 L4.85378151,13.1663866 C5.25378151,13.1663866 5.62016807,13.0252101 5.91596639,12.7966387 C6.57478992,13.1327731 8.03697479,14.0470588 8.17815126,15.5260504 C8.3092437,16.8739496 8.29243697,18.5579832 8.26218487,19.892437 L8.25882353,19.9428571 C8.25546218,20.0672269 8.24537815,20.1579832 8.23529412,20.2554622 L8.21176471,20.5310924 C8.13109244,21.6705882 8.54117647,22.3663866 8.89411765,22.7495798 C9.42521008,23.3210084 10.2252101,23.6235294 11.2067227,23.6235294 C13.0823529,23.6235294 14.205042,22.487395 14.205042,20.5815126 L14.2016807,20.4638655 L14.194958,20.3058824 C14.194958,18.7966387 14.1915966,16.9613445 14.1882353,15.9697479 L16.6722689,15.8957983 L20.7663866,15.8957983 C22.2117647,15.8184874 23.6268908,14.9142857 23.6268908,13.0789916 C23.6235294,12.2756303 23.4184874,11.6941176 23.1663866,11.2773109 Z" id="No-me-gusta_Dislike_2Regular"></path>
        </g>
    </g>
</svg>

<svg width="24" height="24" viewBox="0 0 24 24" xmlns="http://www.w3.org/2000/svg"><path d="M3.274 10.676c.538 0 .914-.377.914-.915 0-.537-.376-.914-.914-.914s-.914.377-.914.914c0 .542.373.915.914.915zm18.44.057a.743.743 0 00-.037 1.049l.04.04c.28.255.43.692.43 1.26 0 1.14-.997 1.318-1.428 1.342h-4.07l-3.224.094c-.4.01-.72.34-.716.743 0 1.7.004 3.405.01 5.105l.007.145c.003 1.17-.454 1.637-1.523 1.637-.393 0-.924-.067-1.233-.403-.229-.246-.326-.619-.293-1.113l.02-.229c.01-.1.02-.198.027-.316.004-.026.007-.053.007-.08.03-1.389.05-3.17-.087-4.622-.209-2.185-2.138-3.432-3.049-3.9v-.01c0-.02.007-.036.007-.057V2.393l2.971-.04c.393 0 .783-.111 1.274-.252l.259-.074c.877-.256 1.869-.548 4.366-.548 4.128 0 4.387.4 4.683 1.197.1.655.003.948-.098 1.129a.74.74 0 00.363 1.035c.498.205 1.093.599 1.093 1.274 0 .474-.108.847-.306 1.083a.745.745 0 00-.172.574.754.754 0 00.313.515c.528.363.797.81.797 1.324.006.477-.142.854-.43 1.123zm-16.86-8.7c.144 0 .259.118.269.26v9.142a.27.27 0 01-.27.26H1.746a.274.274 0 01-.273-.277V2.31c0-.151.125-.272.273-.272l3.109-.003zm18.312 9.244c.256-.4.458-.944.458-1.67 0-.787-.316-1.516-.898-2.098.151-.353.266-.813.266-1.401 0-.945-.495-1.762-1.379-2.316.084-.417.078-.888-.013-1.436a.584.584 0 00-.037-.13C20.887.395 19.808 0 15.473 0c-2.71 0-3.86.336-4.784.608L10.44.68c-.38.11-.685.198-.877.198L6.198.921c-.08 0-.154.03-.232.047a1.753 1.753 0 00-1.112-.41h-3.11C.785.558 0 1.341 0 2.306v9.112c0 .965.783 1.748 1.745 1.748h3.109c.4 0 .766-.14 1.062-.37.659.337 2.121 1.251 2.262 2.73.131 1.348.114 3.032.084 4.366l-.003.05c-.004.125-.014.216-.024.313l-.023.276c-.08 1.14.33 1.835.682 2.219.531.571 1.331.874 2.313.874 1.875 0 2.998-1.137 2.998-3.042l-.003-.118-.007-.158c0-1.51-.003-3.345-.007-4.336l2.484-.074h4.094c1.446-.078 2.86-.982 2.86-2.817-.002-.803-.208-1.385-.46-1.802z" fill="#5CB615" fill-rule="nonzero"/></svg>
